X:34
T:Bonnie Dundee
M:6/8
Q:1/8=300
K:G
%%MIDI channel 1
%%MIDI program 72
%%MIDI transpose 8
%%MIDI grace 1/8
%%MIDI ratio 3 1
B/c/|d>ed d>ed|g>fe d2c|B<dD B<dD|A>BA A2B/c/|d>ed d>Bd|
g>fe d2c|B<dD A<dD|G>AG G2::D|G>GG GcB|A>DD D2D|A>AA ABc|
c>BB B2G|B>AB c>Bc|d>cd e>dc|B<dD A<dD|G>AG G2:|

